Hatter-kde/actions/24/run-build.svg

<svg xmlns="http://www.w3.org/2000/svg" viewBox="0 0 24 24">
  <defs id="defs3051">
    <style type="text/css" id="current-color-scheme">
      .ColorScheme-Text {
        color:#363636;
      }
      </style>
  </defs>
 <path style="fill:currentColor;fill-opacity:1;stroke:none" 
     d="M 12 4 C 11.32479 4.004 10.65279 4.092995 10 4.265625 L 10 5.2988281 L 10 5.3105469 A 7 7 0 0 0 8.6835938 5.8554688 L 8.6757812 5.8476562 L 7.9433594 5.1152344 C 6.7764094 5.8032844 5.8032844 6.7764094 5.1152344 7.9433594 L 5.6367188 8.4648438 L 5.8554688 8.6835938 A 7 7 0 0 0 5.3085938 10 L 5.2949219 10 L 4.2597656 10 C 4.0891457 10.65304 4.00187 11.32505 4 12 C 4.004 12.67521 4.093005 13.34721 4.265625 14 L 5.2988281 14 L 5.3105469 14 A 7 7 0 0 0 5.8554688 15.316406 L 5.6367188 15.535156 L 5.1152344 16.056641 C 5.8032844 17.223601 6.7763994 18.196716 7.9433594 18.884766 L 8.4648438 18.363281 L 8.6835938 18.144531 A 7 7 0 0 0 10 18.691406 L 10 19 L 10 19.740234 C 10.65304 19.910854 11.32504 19.99813 12 20 C 12.67496 19.9981 13.34696 19.91085 14 19.740234 L 14 19 L 14 18.691406 A 7 7 0 0 0 15.316406 18.144531 L 15.535156 18.363281 L 16.056641 18.884766 C 17.223601 18.196716 18.196716 17.223601 18.884766 16.056641 L 18.363281 15.535156 L 18.144531 15.316406 A 7 7 0 0 0 18.689453 14 L 18.701172 14 L 19.734375 14 C 19.907004 13.34721 19.996 12.67521 20 12 C 19.9981 11.32505 19.91085 10.65304 19.740234 10 L 18.705078 10 L 18.691406 10 A 7 7 0 0 0 18.144531 8.6835938 L 18.363281 8.4648438 L 18.884766 7.9433594 C 18.196716 6.7764094 17.223591 5.8032844 16.056641 5.1152344 L 15.324219 5.8476562 L 15.316406 5.8554688 A 7 7 0 0 0 14 5.3105469 L 14 5.2988281 L 14 4.265625 C 13.34721 4.092995 12.67521 4.004 12 4 z M 12 5 C 12.33491 5.0012 12.66956 5.0273719 13 5.0761719 L 13 5.0800781 L 13 6 L 13 6.0859375 A 6 6 0 0 1 15.470703 7.1152344 L 15.535156 7.0507812 L 16.185547 6.4003906 L 16.1875 6.3984375 C 16.72484 6.7991075 17.201446 7.2742469 17.603516 7.8105469 L 17.599609 7.8144531 L 16.949219 8.4648438 L 16.886719 8.5273438 A 6 6 0 0 1 17.910156 11 L 18 11 L 18.921875 11 L 18.925781 11 C 18.974081 11.33106 18.9995 11.66455 19 12 C 18.9988 12.33491 18.972628 12.66955 18.923828 13 L 18.919922 13 L 18 13 L 17.914062 13 A 6 6 0 0 1 16.884766 15.470703 L 16.949219 15.535156 L 17.599609 16.185547 L 17.601562 16.1875 C 17.200893 16.72484 16.725753 17.201456 16.189453 17.603516 L 16.185547 17.599609 L 15.535156 16.949219 L 15.472656 16.886719 A 6 6 0 0 1 13 17.910156 L 13 18 L 13 18.921875 L 13 18.925781 C 12.66894 18.974081 12.33545 18.9995 12 19 C 11.66455 18.9995 11.33106 18.974081 11 18.925781 L 11 18.921875 L 11 18 L 11 17.910156 A 6 6 0 0 1 8.5273438 16.886719 L 8.4648438 16.949219 L 7.8144531 17.599609 L 7.8105469 17.603516 C 7.2742507 17.201463 6.7991075 16.72484 6.3984375 16.1875 L 6.4003906 16.185547 L 7.0507812 15.535156 L 7.1152344 15.470703 A 6 6 0 0 1 6.0859375 13 L 6 13 L 5.0800781 13 L 5.0761719 13 C 5.0273719 12.66955 5.0012 12.33491 5 12 C 5.0005 11.66455 5.0259187 11.33106 5.0742188 11 L 5.078125 11 L 6 11 L 6.0898438 11 A 6 6 0 0 1 7.1132812 8.5273438 L 7.0507812 8.4648438 L 6.4003906 7.8144531 L 6.3964844 7.8105469 C 6.7985582 7.2742507 7.27516 6.7991075 7.8125 6.3984375 L 7.8144531 6.4003906 L 8.4648438 7.0507812 L 8.5292969 7.1152344 A 6 6 0 0 1 11 6.0859375 L 11 6 L 11 5.0800781 L 11 5.0761719 C 11.33044 5.0273719 11.66509 5.0012 12 5 z M 10 9 L 10 15 L 15 12 L 10 9 z "
     class="ColorScheme-Text"
     />
</svg>

<?xml version="1.0" encoding="UTF-8"?>
<svg viewBox="0 0 24 24" xmlns="http://www.w3.org/2000/svg">
 <defs id="defs3051">
  <style id="current-color-scheme" type="text/css">.ColorScheme-Text {
        color:#363636;
      }</style>
 </defs>
 <path class="ColorScheme-Text" d="m12 4c-0.67521 4e-3 -1.3472 0.092995-2 0.26562v1.0332 0.011719a7 7 0 0 0-1.3164 0.54492l-0.74023-0.74023c-1.167 0.68805-2.1401 1.6612-2.8281 2.8281l0.74023 0.74023a7 7 0 0 0-0.54688 1.3164h-0.013672-1.0352c-0.17062 0.65304-0.2579 1.325-0.25977 2 4e-3 0.67521 0.093005 1.3472 0.26562 2h1.0332 0.011719a7 7 0 0 0 0.54492 1.3164l-0.74023 0.74024c0.68805 1.167 1.6612 2.1401 2.8281 2.8281l0.74023-0.74024a7 7 0 0 0 1.3164 0.54688v0.30859 0.74023c0.65304 0.17062 1.325 0.2579 2 0.25977 0.67496-0.0019 1.347-0.08915 2-0.25977v-0.74023-0.30859a7 7 0 0 0 1.3164-0.54688l0.74024 0.74024c1.167-0.68805 2.1401-1.6612 2.8281-2.8281l-0.74024-0.74024a7 7 0 0 0 0.54492-1.3164h0.011719 1.0332c0.17263-0.65279 0.26162-1.3248 0.26562-2-0.0019-0.67495-0.08915-1.347-0.25977-2h-1.0352-0.013672a7 7 0 0 0-0.54688-1.3164l0.74024-0.74023c-0.68805-1.167-1.6612-2.1401-2.8281-2.8281l-0.73242 0.73242-0.007813 0.0078126a7 7 0 0 0-1.3164-0.54492v-0.011719-1.0332c-0.65279-0.17263-1.3248-0.26162-2-0.26562zm0 1c0.33491 0.0012 0.66956 0.027372 1 0.076172v0.0039062 0.91992 0.085938a6 6 0 0 1 2.4707 1.0293l0.71484-0.71484 0.001953-0.0019531c0.53734 0.40067 1.0139 0.87581 1.416 1.4121l-0.003907 0.0039062-0.71289 0.71289a6 6 0 0 1 1.0234 2.4727h0.089844 0.92188 0.003906c0.0483 0.33106 0.073719 0.66455 0.074219 1-0.0012 0.33491-0.027372 0.66955-0.076172 1h-0.003906-0.91992-0.085938a6 6 0 0 1-1.0293 2.4707l0.7168 0.7168c-0.40067 0.53734-0.87581 1.014-1.4121 1.416l-0.003906-0.003907-0.71289-0.71289a6 6 0 0 1-2.4727 1.0234v0.089844 0.92188 0.003906c-0.33106 0.0483-0.66455 0.073719-1 0.074219-0.33545-5e-4 -0.66894-0.025919-1-0.074219v-0.003906-0.92188-0.089844a6 6 0 0 1-2.4727-1.0234l-0.71289 0.71289-0.0039062 0.003907c-0.5363-0.40205-1.0114-0.87868-1.4121-1.416l0.0019531-0.001953 0.71484-0.71484a6 6 0 0 1-1.0293-2.4707h-0.085938-0.91992-0.0039062c-0.0488-0.33045-0.074972-0.66509-0.076172-1 5e-4 -0.33545 0.025919-0.66894 0.074219-1h0.0039062 0.92188 0.089844a6 6 0 0 1 1.0234-2.4727l-0.7168-0.7168c0.40207-0.5363 0.87868-1.0114 1.416-1.4121l0.7168 0.7168a6 6 0 0 1 2.4707-1.0293v-0.085938-0.91992-0.0039062c0.33044-0.0488 0.66509-0.074972 1-0.076172zm-2 4v6l5-3-5-3z" fill="currentColor"/>
</svg>
